X: 28581
T: Murphy's Waltz Tune
R: waltz
M: 3/4
K: Gmajor
DD|G2 B2 BA|GF E2 G2|GA B2 GG|cB G4|d2 d2 e2|
{f}e2 c2 c2|{c}B2 ed c2|d2 G2 Hd2|d3 g g2|e2 e d3|G2 A G2:|
B3 B d2|c3 c B2|c2 e2 g2|g6|gf ef ge|dB BA G2|AB c3 c|
d3 e Hg2|gf ee ge|dB B2 G2|E2 D2 {E}D2|DG {B}A2 HG2:|

